symbols/web/how_to_reg/materialsymbolsrounded/how_to_reg_wght100_48px.svg

<svg xmlns="http://www.w3.org/2000/svg" height="48" width="48"><path d="M7.8 36.4q-.55 0-.95-.4-.4-.4-.4-.95v-1q0-1.5.725-2.275Q7.9 31 9 30.45q2.9-1.35 5.075-1.95 2.175-.6 5.775-.6 1.5 0 2.625.075t1.975.275l-.95 1q-.7-.1-1.675-.175Q20.85 29 19.85 29q-3.35 0-5.65.6-2.3.6-4.65 1.8-1.2.55-1.6 1.2-.4.65-.4 1.45v1.25H20.1l1.1 1.1Zm22.65 2.05q-.25 0-.475-.1-.225-.1-.425-.3l-3.8-3.8q-.15-.15-.175-.375-.025-.225.175-.425.2-.2.4-.2t.4.2l3.95 3.95 9.85-9.85q.15-.15.375-.175.225-.025.425.175.2.2.2.4t-.2.4l-9.7 9.7q-.2.2-.475.3-.275.1-.525.1Zm-10.6-16.1q-2.25 0-3.75-1.475T14.6 17.1q0-2.25 1.5-3.75t3.75-1.5q2.25 0 3.75 1.5t1.5 3.75q0 2.3-1.5 3.775t-3.75 1.475Zm.25 12.95Zm-.25-14.05q1.75 0 2.95-1.2 1.2-1.2 1.2-2.95 0-1.75-1.2-2.95-1.2-1.2-2.95-1.2-1.75 0-2.95 1.2-1.2 1.2-1.2 2.95 0 1.75 1.2 2.95 1.2 1.2 2.95 1.2Zm0-4.15Z"/></svg>

<svg xmlns="http://www.w3.org/2000/svg" height="48" width="48"><path d="M7.8 36.4Q7.25 36.4 6.85 36Q6.45 35.6 6.45 35.05V34.05Q6.45 32.55 7.175 31.775Q7.9 31 9 30.45Q11.9 29.1 14.075 28.5Q16.25 27.9 19.85 27.9Q21.35 27.9 22.475 27.975Q23.6 28.05 24.45 28.25L23.5 29.25Q22.8 29.15 21.825 29.075Q20.85 29 19.85 29Q16.5 29 14.2 29.6Q11.9 30.2 9.55 31.4Q8.35 31.95 7.95 32.6Q7.55 33.25 7.55 34.05V35.3H20.1L21.2 36.4ZM30.45 38.45Q30.2 38.45 29.975 38.35Q29.75 38.25 29.55 38.05L25.75 34.25Q25.6 34.1 25.575 33.875Q25.55 33.65 25.75 33.45Q25.95 33.25 26.15 33.25Q26.35 33.25 26.55 33.45L30.5 37.4L40.35 27.55Q40.5 27.4 40.725 27.375Q40.95 27.35 41.15 27.55Q41.35 27.75 41.35 27.95Q41.35 28.15 41.15 28.35L31.45 38.05Q31.25 38.25 30.975 38.35Q30.7 38.45 30.45 38.45ZM19.85 22.35Q17.6 22.35 16.1 20.875Q14.6 19.4 14.6 17.1Q14.6 14.85 16.1 13.35Q17.6 11.85 19.85 11.85Q22.1 11.85 23.6 13.35Q25.1 14.85 25.1 17.1Q25.1 19.4 23.6 20.875Q22.1 22.35 19.85 22.35ZM20.1 35.3Q20.1 35.3 20.1 35.3Q20.1 35.3 20.1 35.3Q20.1 35.3 20.1 35.3Q20.1 35.3 20.1 35.3Q20.1 35.3 20.1 35.3Q20.1 35.3 20.1 35.3Q20.1 35.3 20.1 35.3Q20.1 35.3 20.1 35.3ZM19.85 21.25Q21.6 21.25 22.8 20.05Q24 18.85 24 17.1Q24 15.35 22.8 14.15Q21.6 12.95 19.85 12.95Q18.1 12.95 16.9 14.15Q15.7 15.35 15.7 17.1Q15.7 18.85 16.9 20.05Q18.1 21.25 19.85 21.25ZM19.85 17.1Q19.85 17.1 19.85 17.1Q19.85 17.1 19.85 17.1Q19.85 17.1 19.85 17.1Q19.85 17.1 19.85 17.1Q19.85 17.1 19.85 17.1Q19.85 17.1 19.85 17.1Q19.85 17.1 19.85 17.1Q19.85 17.1 19.85 17.1Z"/></svg>
